X: 34575
T: Rising Of The Sun, The
R: hornpipe
M: 4/4
K: Dmajor
|:(3gfe|d2 F>B A2 F>A|(3Bcd e>g f>B (3cBA|d2 F>B A2 F>D|E>G (3GFE D>g (3gfe|
(3ded F>B A2 (3FGA|(3Bcd e>g f>a (3gfe|d2 F>B (3ABA F>A|(3Bcd e>c d2:|
(3cBA|d2 (3efg a>fe>d|c>Ae>A f>Ae>A|d>ef>g a2 (3fed|(3cBA B>c (3dcd (3ABc|
d>ef>g a>f (3fed|(3cBA e>A f>Ae>A|d2 (3efg a>ba>g|f>Ae>A d2 (3cBA|
d2 (3efg a2 (3fed|c>Ae>A f>A e2|d>ef>g a>Af>A|(3cBA B>c d2 A2|
d2 (3efg a>f (3fed|(3cBA e>A f>Ae>a|d>f (3fff A>g (3ggg|f<gf>e d2||

